static/assets/images/icons/click.svg

<svg width="256" height="256" viewBox="0 0 256 256" fill="none" xmlns="http://www.w3.org/2000/svg">
<path fill-rule="evenodd" clip-rule="evenodd" d="M131.448 41.0494C131.448 47.3153 126.369 52.3949 120.104 52.3949C113.838 52.3949 108.759 47.3153 108.759 41.0494V18.3455C108.759 12.0795 113.838 7 120.104 7C126.369 7 131.448 12.0795 131.448 18.3455V41.0494ZM63.3794 109.139C63.3794 115.406 58.2987 120.487 52.0314 120.487H29.348C23.0807 120.487 18 115.406 18 109.139C18 102.871 23.0807 97.7902 29.348 97.7902H52.0314C58.2987 97.7902 63.3794 102.871 63.3794 109.139ZM47.9076 36.9135C43.4794 41.3434 43.4788 48.5239 47.9064 52.9545L63.9512 69.0102C68.3818 73.4438 75.5678 73.4443 79.999 69.0113C84.427 64.5815 84.4275 57.4011 80.0001 52.9706L63.9554 36.9147C59.5249 32.4812 52.3388 32.4806 47.9076 36.9135ZM47.9056 165.317C43.4782 169.747 43.4789 176.928 47.9071 181.358C52.3383 185.79 59.5242 185.79 63.9546 181.356L79.9991 165.301C84.4267 160.87 84.426 153.689 79.9976 149.259C75.5663 144.827 68.3803 144.827 63.95 149.261L47.9056 165.317ZM160.213 52.9701C155.785 57.4008 155.786 64.5816 160.214 69.0115C164.646 73.4444 171.832 73.4438 176.262 69.0101L192.306 52.9548C196.734 48.5241 196.733 41.3433 192.305 36.9134C187.874 32.4805 180.688 32.4812 176.257 36.9148L160.213 52.9701Z" fill="black"/>
<path fill-rule="evenodd" clip-rule="evenodd" d="M160.225 210.331C149.708 220.851 131.748 216.058 127.871 201.696L102.332 107.108C99.7383 97.5016 108.539 88.7012 118.144 91.2957L212.705 116.838C227.062 120.716 231.856 138.669 221.344 149.188L213.911 156.626C212.652 157.885 212.653 159.926 213.912 161.184L234.223 181.495C239.259 186.531 239.259 194.697 234.223 199.733L210.735 223.223C205.699 228.26 197.533 228.259 192.497 223.221L172.198 202.916C170.939 201.656 168.897 201.656 167.638 202.916L160.225 210.331ZM204.351 200.724C202.841 202.235 200.39 202.235 198.879 200.724L179.038 180.875C174.001 175.837 165.834 175.837 160.798 180.875L151.043 190.633C149.29 192.387 146.297 191.588 145.651 189.194L126.931 119.845C126.282 117.444 128.483 115.244 130.884 115.893L200.207 134.619C202.601 135.265 203.399 138.258 201.646 140.011L191.87 149.786C186.833 154.822 186.832 162.989 191.869 168.026L211.722 187.878C213.233 189.389 213.233 191.838 211.723 193.35L204.351 200.724Z" fill="black"/>
</svg>

<svg xmlns="http://www.w3.org/2000/svg" fill="none" viewBox="0 0 256 256"><path fill="#000" fill-rule="evenodd" d="M131.448 41.05c0 6.265-5.079 11.345-11.344 11.345-6.266 0-11.345-5.08-11.345-11.346V18.346c0-6.267 5.079-11.346 11.345-11.346 6.265 0 11.344 5.08 11.344 11.346zm-68.069 68.089c0 6.267-5.08 11.348-11.348 11.348H29.348c-6.267 0-11.348-5.081-11.348-11.348S23.08 97.79 29.348 97.79h22.683c6.268 0 11.348 5.081 11.348 11.349M47.908 36.914c-4.429 4.43-4.43 11.61-.002 16.04L63.951 69.01c4.43 4.434 11.617 4.434 16.048.001 4.428-4.43 4.429-11.61.001-16.04L63.955 36.915c-4.43-4.434-11.616-4.434-16.047-.002m-.002 128.403c-4.428 4.43-4.427 11.611.001 16.041 4.431 4.432 11.617 4.432 16.048-.002L79.999 165.3c4.428-4.431 4.427-11.612-.001-16.042-4.432-4.432-11.618-4.432-16.048.002zM160.213 52.97c-4.428 4.43-4.427 11.612.001 16.042 4.432 4.432 11.618 4.432 16.048-.002l16.044-16.055c4.428-4.43 4.427-11.612-.001-16.042-4.431-4.432-11.617-4.432-16.048.002zm.012 157.361c-10.517 10.52-28.477 5.727-32.354-8.635l-25.539-94.588c-2.594-9.606 6.207-18.407 15.812-15.812l94.561 25.542c14.357 3.878 19.151 21.831 8.639 32.35l-7.433 7.438a3.22 3.22 0 0 0 .001 4.558l20.311 20.311c5.036 5.036 5.036 13.202 0 18.238l-23.488 23.49c-5.036 5.037-13.202 5.036-18.238-.002l-20.299-20.305a3.223 3.223 0 0 0-4.56 0zm44.126-9.607a3.87 3.87 0 0 1-5.472 0l-19.841-19.849c-5.037-5.038-13.204-5.038-18.24 0l-9.755 9.758c-1.753 1.754-4.746.955-5.392-1.439l-18.72-69.349c-.649-2.401 1.552-4.601 3.953-3.952l69.323 18.726c2.394.646 3.192 3.639 1.439 5.392l-9.776 9.775c-5.037 5.036-5.038 13.203-.001 18.24l19.853 19.852a3.87 3.87 0 0 1 .001 5.472z" clip-rule="evenodd"/></svg>
